libs/ui/packages/crypto-icons/src/svg/OMNI.svg

<svg width="24" height="24" viewBox="0 0 24 24" fill="none">
<path d="M7.54875 5.166C6.5931 5.78976 5.77821 6.60618 5.15625 7.563V5.166H7.54875ZM18.8018 7.4985C18.1851 6.5692 17.3853 5.77551 16.4513 5.166H18.8018V7.4985ZM16.4858 18.8115C17.4051 18.2049 18.1927 17.4192 18.8018 16.5015V18.8115H16.4858ZM5.15625 16.437C5.77062 17.3822 6.57334 18.1906 7.51425 18.8115H5.15625V16.437ZM19.5 12C19.5 16.1355 16.1355 19.5 12 19.5C7.8645 19.5 4.5 16.1355 4.5 12C4.5 7.8645 7.8645 4.5 12 4.5C16.1355 4.5 19.5 7.8645 19.5 12ZM12 17.469C15.015 17.469 17.469 15.0157 17.469 12C17.469 8.985 15.0157 6.531 12 6.531C8.985 6.531 6.531 8.98425 6.531 12C6.531 15.015 8.98425 17.469 12 17.469Z" fill="#1C347A"/>
</svg>

<svg width="24" height="24" viewBox="0 0 24 24" fill="none"><path fill="#1c347a" d="M7.549 5.166a8.2 8.2 0 0 0-2.393 2.397V5.166zm11.253 2.332a8.2 8.2 0 0 0-2.35-2.332h2.35zm-2.316 11.313a8.2 8.2 0 0 0 2.316-2.31v2.31zm-11.33-2.374a8.2 8.2 0 0 0 2.358 2.374H5.156zM19.5 12c0 4.136-3.364 7.5-7.5 7.5-4.135 0-7.5-3.364-7.5-7.5 0-4.135 3.364-7.5 7.5-7.5s7.5 3.364 7.5 7.5M12 17.469A5.476 5.476 0 0 0 17.469 12 5.476 5.476 0 0 0 12 6.531 5.476 5.476 0 0 0 6.531 12 5.476 5.476 0 0 0 12 17.469"/></svg>
